svg/general/hide-eye.svg

<svg width="17" height="16" viewBox="0 0 17 16" fill="none" xmlns="http://www.w3.org/2000/svg">
<path d="M6.983 5.42301L10.571 9.00001C10.7014 8.67812 10.7693 8.33432 10.771 7.98701C10.7714 7.53548 10.6611 7.09075 10.4496 6.6918C10.2381 6.29285 9.93201 5.95188 9.55809 5.69878C9.18417 5.44569 8.75386 5.28819 8.3049 5.24011C7.85594 5.19203 7.40204 5.25483 6.983 5.42301ZM15.905 7.64701C15.781 7.44701 12.805 2.74701 8.005 2.74701C6.95825 2.75471 5.9246 2.98051 4.97 3.41001L5.932 4.36901C6.59423 4.12404 7.29394 3.9958 8 3.99001C11.424 3.99001 13.886 6.96801 14.62 7.97401C13.9076 8.94202 13.0526 9.79639 12.084 10.508L12.984 11.408C14.1245 10.5454 15.1122 9.49748 15.906 8.30801C15.9685 8.20908 16.0017 8.09441 16.0015 7.97736C16.0013 7.86032 15.9678 7.74575 15.905 7.64701ZM4.7 4.92501L4.711 4.91901L3.8 4.00901L3.789 4.01501L2.96 3.18901C2.84287 3.07559 2.68588 3.0127 2.52284 3.01387C2.3598 3.01505 2.20374 3.08019 2.08825 3.19529C1.97276 3.31038 1.90709 3.46622 1.90536 3.62926C1.90363 3.79229 1.96598 3.94949 2.079 4.06701L2.753 4.73901C1.7206 5.56421 0.823152 6.54533 0.0929995 7.64701C0.0321621 7.74523 -6.86646e-05 7.85847 -6.86646e-05 7.97401C-6.86646e-05 8.08954 0.0321621 8.20279 0.0929995 8.30101C0.218 8.50001 3.2 13.2 8 13.2C8.93055 13.1953 9.85214 13.0179 10.718 12.677L11.271 13.228C11.3874 13.345 11.5456 13.4109 11.7106 13.4113C11.8756 13.4116 12.034 13.3464 12.151 13.23C12.268 13.1136 12.3339 12.9555 12.3343 12.7904C12.3346 12.6254 12.2694 12.467 12.153 12.35L11.916 12.114L11.926 12.107L11 11.185L10.989 11.191L4.7 4.92501ZM5.328 7.30001C5.26504 7.52235 5.23142 7.75196 5.228 7.98301C5.228 8.3467 5.29975 8.70683 5.43914 9.04275C5.57853 9.37867 5.78283 9.68379 6.04032 9.94064C6.29782 10.1975 6.60346 10.401 6.93973 10.5395C7.276 10.6781 7.63631 10.7489 8 10.748C8.23171 10.7447 8.462 10.711 8.685 10.648L9.737 11.7C9.17357 11.8699 8.58848 11.9571 8 11.959C4.574 11.959 2.113 8.98101 1.379 7.97401C2.02487 7.09283 2.78828 6.30418 3.648 5.63001L5.328 7.30001Z" fill="black"/>
</svg>

<svg id="Layer_1" data-name="Layer 1" xmlns="http://www.w3.org/2000/svg" viewBox="0 0 16 16"><title>hide-eye</title><path d="M6.983,5.423,10.571,9a2.733,2.733,0,0,0,.2-1.013A2.76,2.76,0,0,0,6.983,5.423Zm8.922,2.224c-.124-.2-3.1-4.9-7.9-4.9a7.532,7.532,0,0,0-3.035.663l.962.959A6.105,6.105,0,0,1,8,3.99c3.424,0,5.886,2.978,6.62,3.984a11.888,11.888,0,0,1-2.536,2.534l.9.9a12.785,12.785,0,0,0,2.922-3.1A.617.617,0,0,0,15.905,7.647ZM4.7,4.925l.011-.006L3.8,4.009l-.011.006-.829-.826a.622.622,0,0,0-.881.878l.674.672A12.716,12.716,0,0,0,.093,7.647a.621.621,0,0,0,0,.654C.218,8.5,3.2,13.2,8,13.2a7.524,7.524,0,0,0,2.718-.523l.553.551a.622.622,0,0,0,.882-.878l-.237-.236.01-.007L11,11.185l-.011.006ZM5.328,7.3a2.651,2.651,0,0,0-.1.683A2.765,2.765,0,0,0,8,10.748a2.66,2.66,0,0,0,.685-.1L9.737,11.7A6.084,6.084,0,0,1,8,11.959c-3.426,0-5.887-2.978-6.621-3.985A11.975,11.975,0,0,1,3.648,5.63Z"/></svg>
